X: 8631
T: Crooked Still
R: reel
M: 4/4
K: Dmajor
|:GBdf efdB|dBf2 eddf|gBdf efdB|dafe edd2|
GBdf efdB|dBf2 ed(3Bcd|affe edBd-|dfed d3z:|
|:DGBd a2gf-|f2Bd a2gf-|f2Bd f2ed|deA2 ABd2|
DGBd a2gf-|f2Bd a2gf-|f2Bd f2ed|deA2 ABd2:|

